Hatter-kde/actions/24/insert-footnote.svg

<?xml version="1.0" encoding="UTF-8"?>
<svg viewBox="0 0 24 24" xmlns="http://www.w3.org/2000/svg">
 <defs id="defs3051">
  <style id="current-color-scheme" type="text/css">.ColorScheme-Text {
        color:#363636;
      }
      .ColorScheme-Highlight {
        color:#3daee9;
      }</style>
 </defs>
 <g transform="translate(1,1)" fill="currentColor">
  <path class="ColorScheme-Text" d="m4 3v16h1 6v-1h-6v-14h12v8h1v-9h-1-12-1zm2 3v1h10v-1h-10zm0 2v1h6v-1h-6zm0 5v1h7v-1h-7z"/>
  <path class="ColorScheme-Highlight" d="m16 13-1 2h1v4h1v-6h-1zm-10 2v1h7v-1h-7z"/>
 </g>
</svg>

<svg xmlns="http://www.w3.org/2000/svg" viewBox="0 0 24 24">
  <defs id="defs3051">
    <style type="text/css" id="current-color-scheme">
      .ColorScheme-Text {
        color:#363636;
      }
      .ColorScheme-Highlight {
        color:#3daee9;
      }
      </style>
  </defs><g transform="translate(1,1)">
 <path 
     style="fill:currentColor;fill-opacity:1;stroke:none" 
     d="M 4 3 L 4 19 L 5 19 L 11 19 L 11 18 L 5 18 L 5 4 L 17 4 L 17 12 L 18 12 L 18 3 L 17 3 L 5 3 L 4 3 z M 6 6 L 6 7 L 16 7 L 16 6 L 6 6 z M 6 8 L 6 9 L 12 9 L 12 8 L 6 8 z M 6 13 L 6 14 L 13 14 L 13 13 L 6 13 z "
     class="ColorScheme-Text"
     />
 <path 
     style="fill:currentColor;fill-opacity:1;stroke:none" 
     d="M 16 13 L 15 15 L 16 15 L 16 19 L 17 19 L 17 13 L 16 13 z M 6 15 L 6 16 L 13 16 L 13 15 L 6 15 z "
     class="ColorScheme-Highlight"
     />
</g></svg>
